svg/furkot/public-domain/firstlast.svg

<svg viewBox="0 0 512 512" xmlns="http://www.w3.org/2000/svg"><path d="m0 287.944h95.848l47.12-43.92 48.72 43.92h95.848l-147.76-127.784zm278.08-255.168c-87.544 19.784-120.704 46.736-160.928 101.184l-4.664 7.512-16.096 28.24 41.368-40.544 53.928 46.96c-.184-.312 13.552-15.936 18.536-21.728 46.52-50.632 112.104-37.848 158.04-11.88 63.808 38.56 82.464 114.312 46.904 177.664-35.552 63.384-117.824 87.568-181.624 49.008-31.152-18.816-49.712-34.472-57.768-68.432l-.696-1.6-32.336-23.608-46.896 42.496c14.184 59.776 50.544 101.912 99.8 131.688 99.968 60.408 226.616 26.96 286.424-79.648 59.8-106.608 24.12-247.664-75.848-308.08-24.976-15.112-51.952-25.2-78.848-28.88-10.096-1.376-39.24-.536-49.296-.352z"/></svg>

<svg xmlns="http://www.w3.org/2000/svg" viewBox="0 0 512 512"><path d="M0 287.944 0 287.944L95.848 287.944 142.968 244.024 191.688 287.944 287.536 287.944 139.776 160.16ZM278.08 32.776 278.08 32.776C190.536 52.56 157.376 79.512 117.152 133.96L112.488 141.472 96.392 169.712 137.76 129.168 191.688 176.128C191.504 175.816 205.24 160.192 210.224 154.4 256.744 103.768 322.328 116.552 368.264 142.52 432.072 181.08 450.728 256.832 415.168 320.184 379.616 383.568 297.344 407.752 233.544 369.192 202.392 350.376 183.832 334.72 175.776 300.76L175.08 299.16 142.744 275.552 95.848 318.048C110.032 377.824 146.392 419.96 195.648 449.736 295.616 510.144 422.264 476.696 482.072 370.088 541.872 263.48 506.192 122.424 406.224 62.008 381.248 46.896 354.272 36.808 327.376 33.128 317.28 31.752 288.136 32.592 278.08 32.776Z"/></svg>
